X:148
T:C & N
C:Henry Purcell, Hornpipe from "The Virtuous Wife",1694
L:1/4
M:3/2
R:Triple-time Hornpipe
S:Colin Hume's website,  colinhume.com  - chords can also be printed below the stave.
%%MIDI gchord fcHcfc
%%MIDI beat 100 95 80
Q:1/2=104
%%MIDI chordname 7sus 0 5 7 10
K:C
P:A
|: "C"c2 e2 "G/B"g2 | "Am"ec "Dm"f/e/d/c/ "G"dB | "Am"cA "Dm"d/c/B/A/ "G7"BG |\
"C"c2 e2 "G/B"g2 | "Am"ec "Dm"f/e/d/c/ "G"dB | "C"cG- GA/B/c2 :|
P:B
|: "C"E2 G2 "F/A"c2 | "C"GE- EF/G/ "G/B"A/G/F/E/ | "F/A"F2 A2 "Dm/F"d2 |\
"G"BG- GA/B/ "C/G"c/d/e | "G7sus"fd- de/f/ "G"g/a/g/f/ | "C"ec- cG c2 :|

